urcenter/urcenter/img/icons/phone.svg

<svg width="50" height="50" viewBox="0 0 50 50" fill="none" xmlns="http://www.w3.org/2000/svg">
<rect width="50" height="50" rx="7" fill="url(#paint0_linear)"/>
<g clip-path="url(#clip0)">
<path fill-rule="evenodd" clip-rule="evenodd" d="M19.1809 17.6667C19.1809 16.2744 20.3095 15.1458 21.7017 15.1458H29.0351C30.4273 15.1458 31.5559 16.2744 31.5559 17.6667V32.3333C31.5559 33.7256 30.4273 34.8542 29.0351 34.8542H21.7017C20.3095 34.8542 19.1809 33.7256 19.1809 32.3333V17.6667ZM21.7017 16.5208C21.0689 16.5208 20.5559 17.0338 20.5559 17.6667V32.3333C20.5559 32.9662 21.0689 33.4792 21.7017 33.4792H29.0351C29.6679 33.4792 30.1809 32.9662 30.1809 32.3333V17.6667C30.1809 17.0338 29.6679 16.5208 29.0351 16.5208H21.7017Z" fill="white"/>
<path fill-rule="evenodd" clip-rule="evenodd" d="M22.6184 15.1458C22.2387 15.1458 21.9309 15.4536 21.9309 15.8333V16.75C21.9309 17.6359 22.6491 18.3542 23.5351 18.3542H27.2017C28.0877 18.3542 28.8059 17.6359 28.8059 16.75V15.8333C28.8059 15.4536 28.4981 15.1458 28.1184 15.1458H22.6184Z" fill="white"/>
</g>
<defs>
<linearGradient id="paint0_linear" x1="38.1757" y1="48.3108" x2="13.8514" y2="12.1622" gradientUnits="userSpaceOnUse">
<stop stop-color="#2641D1"/>
<stop offset="1" stop-color="#3333A3"/>
</linearGradient>
<clipPath id="clip0">
<rect width="12.7368" height="22" fill="white" transform="translate(19 14)"/>
</clipPath>
</defs>
</svg>

<svg width="50" height="50" fill="none" xmlns="http://www.w3.org/2000/svg"><rect width="50" height="50" rx="7" fill="url(#paint0_linear)"/><g clip-path="url(#clip0)" fill-rule="evenodd" clip-rule="evenodd" fill="#fff"><path d="M19.18 17.667a2.52 2.52 0 012.522-2.521h7.333a2.52 2.52 0 012.52 2.52v14.667a2.52 2.52 0 01-2.52 2.521h-7.333a2.52 2.52 0 01-2.521-2.52V17.666zm2.522-1.146c-.633 0-1.146.513-1.146 1.146v14.666c0 .633.513 1.146 1.146 1.146h7.333c.633 0 1.146-.513 1.146-1.146V17.667c0-.633-.513-1.146-1.146-1.146h-7.333z"/><path d="M22.618 15.146a.687.687 0 00-.687.687v.917c0 .886.718 1.604 1.604 1.604h3.667c.886 0 1.604-.718 1.604-1.604v-.917a.687.687 0 00-.688-.687h-5.5z"/></g><defs><linearGradient id="paint0_linear" x1="38.176" y1="48.311" x2="13.851" y2="12.162" gradientUnits="userSpaceOnUse"><stop stop-color="#2641D1"/><stop offset="1" stop-color="#3333A3"/></linearGradient><clipPath id="clip0"><path fill="#fff" transform="translate(19 14)" d="M0 0h12.737v22H0z"/></clipPath></defs></svg>
